X:1
T:Old Ship of Zion
T:Daniel Brink Towner
T:Old Ship of Zion
T:Public Domain
T:Public Domain
C:Daniel Brink Towner
Z:Public Domain
%%score 1 ( 2 3 )
L:1/8
M:4/4
K:C
V:1 treble 
V:2 bass 
V:3 bass 
V:1
 [CE][DF] | [EG]2 [EG][EG] [FG]2 [FA][FB] | [Ec]2 [Ec][Ec] [Ec]2 [EG][Ec] | %3
w: 1.~I was|drift- ing a- way on life’s|pi- ti- less sea, And the|
w: 2.~’Twas the|“old ship of Zi- on,” thus|sail- ing a- long, All a-|
w: 3.~The good|Ca- ptain com- mand- ed a|boat to be low’red, And with|
w: 4.~O ~|soul, sink- ing down ’neath sin’s|mer- ci- less wave, The strong|
 [Fd]2 [Fd][Fd] [Fd]2 [FG][Gd] | [Ge]2 [Ec][CE] [EG]2 [CE][DF] | [EG]2 [EG][EG] [FG]2 [FA][FB] | %6
w: an- gry waves threaten- ed my|ru- in to be, When a-|way at my side, there I|
w: board her seemed joy- ous, I|heard their sweet song; And the|Cap- tain’s kind ear, ever rea-|
w: ten- der com- pass- ion He|took me on board; And I’m|hap- py today, all my sins|
w: arm of our Cap- tain is|might- y to save; Th- en|trust Him to- day, n- o|
 [Ec]2 [Ec][Ec] [Ec]2 ([EG][Ec]) | [Fd]2 [Fd][Fd] [^Fd]2 [FB]G | [GB]2 [^FB]>[FA] G2 [=FG]>[FG] | %9
w: dim- ly de- scried, A *|state- ly old vess- el, and|loud- ly I cried: “Ship a-|
w: dy to hear, Caught my *|wail of dis- tress, as I|cried out in fear: “Ship a-|
w: washed a- way In the *|blood of my Sav- ior, and|now I can say: “Bless the|
w: long- er de- lay, Board~the *|old ship of Zi- on, and|shout on your way: “Jes- us|
 [Ec]6 [EG]>[EG] | [Gd]6 GG | [Ge]2 [Ge][Ge] [Af]2 [FB]>[FB] | [Ec]6 |] %13
w: hoy! Ship a-|hoy!” A- nd|loud- ly I cried: “Ship a-|hoy!”|
w: hoy! Ship a-|hoy!” As I|cried out in fear: “Ship a-|hoy!”|
w: Lord! Bless the|Lord!” From my|soul I can say: “Bless the|Lord!”|
w: saves! Je- sus|saves!” Shout and|sing on your way: “Je- sus|saves!”|
V:2
 [C,G,][C,G,] | [C,C]2 [C,C][C,C] [G,B,]2 [G,D][G,D] | [C,C]2 [C,G,][C,G,] [C,G,]2 [C,C][C,C] | %3
 [G,B,]2 [G,B,][G,B,] [G,B,]2 [G,B,][G,B,] | [C,C]2 [C,G,][C,C] [C,C]2 [C,G,][C,G,] | %5
 [C,C]2 [C,C][C,C] [G,B,]2 [G,D][G,D] | [C,C]2 [C,G,][C,G,] [C,G,]2 ([C,C][C,C]) | %7
 [G,B,]2 [G,B,][G,B,] [D,A,]2 [D,D][D,B,] | [D,C]2 [D,C]>[D,C] [G,B,]2 z2 | %9
 z2 ([C,G,]>[C,G,] [C,G,]2) z2 | z2 ([G,B,]>[G,B,] [G,B,]2) [G,B,][G,B,] | %11
 C2 [A,C][A,C] [F,C]2 G,>G, | [C,G,]6 |] %13
V:3
 x2 | x8 | x8 | x8 | x8 | x8 | x8 | x8 | x8 | x8 | x8 | C2 x2 G,>G, x2 | x6 |] %13

